X:142 
T:My Love Between Two Roses (reel)
S:Grier MS
F:file ID: cre.4/142my_love_btr
B:CRE4.197 (Mo Ghrasa idir Dha Ros)
Q:180
L:1/8
M:4/4
R:reel
K:D
AD (3FED FAAc|Bdeg fddB|AD (3FED FAAc|BGFG E2 D2:|
d2 fd Adfd|efge fdBc|d2 fd Adfd|edcd B2 A2|
d2 fd Adfd|efge fdBg|fgeg fdec|dABG FAdB ||

%%%

